public/media/tda-images/example1.svg

<?xml version="1.0" encoding="UTF-8"?>
<svg xmlns="http://www.w3.org/2000/svg" xmlns:xlink="http://www.w3.org/1999/xlink" width="374pt" height="374pt" viewBox="0 0 374 374" version="1.1">
<g id="surface66">
<rect x="0" y="0" width="374" height="374" style="fill:rgb(100%,100%,100%);fill-opacity:1;stroke:none;"/>
<path style="fill-rule:nonzero;fill:rgb(100%,0%,0%);fill-opacity:1;stroke-width:0.75;stroke-linecap:round;stroke-linejoin:round;stroke:rgb(100%,0%,0%);stroke-opacity:1;stroke-miterlimit:10;" d="M 360.367188 158.847656 C 360.367188 161.25 356.769531 161.25 356.769531 158.847656 C 356.769531 156.449219 360.367188 156.449219 360.367188 158.847656 "/>
<path style="fill-rule:nonzero;fill:rgb(100%,0%,0%);fill-opacity:1;stroke-width:0.75;stroke-linecap:round;stroke-linejoin:round;stroke:rgb(100%,0%,0%);stroke-opacity:1;stroke-miterlimit:10;" d="M 309.730469 126.15625 C 309.730469 128.554688 306.132812 128.554688 306.132812 126.15625 C 306.132812 123.753906 309.730469 123.753906 309.730469 126.15625 "/>
<path style="fill-rule:nonzero;fill:rgb(100%,0%,0%);fill-opacity:1;stroke-width:0.75;stroke-linecap:round;stroke-linejoin:round;stroke:rgb(100%,0%,0%);stroke-opacity:1;stroke-miterlimit:10;" d="M 319.207031 77.351562 C 319.207031 79.75 315.609375 79.75 315.609375 77.351562 C 315.609375 74.949219 319.207031 74.949219 319.207031 77.351562 "/>
<path style="fill-rule:nonzero;fill:rgb(100%,0%,0%);fill-opacity:1;stroke-width:0.75;stroke-linecap:round;stroke-linejoin:round;stroke:rgb(100%,0%,0%);stroke-opacity:1;stroke-miterlimit:10;" d="M 302.363281 24.359375 C 302.363281 26.761719 298.765625 26.761719 298.765625 24.359375 C 298.765625 21.960938 302.363281 21.960938 302.363281 24.359375 "/>
<path style="fill-rule:nonzero;fill:rgb(100%,0%,0%);fill-opacity:1;stroke-width:0.75;stroke-linecap:round;stroke-linejoin:round;stroke:rgb(100%,0%,0%);stroke-opacity:1;stroke-miterlimit:10;" d="M 244.054688 42.136719 C 244.054688 44.535156 240.453125 44.535156 240.453125 42.136719 C 240.453125 39.734375 244.054688 39.734375 244.054688 42.136719 "/>
<path style="fill-rule:nonzero;fill:rgb(100%,0%,0%);fill-opacity:1;stroke-width:0.75;stroke-linecap:round;stroke-linejoin:round;stroke:rgb(100%,0%,0%);stroke-opacity:1;stroke-miterlimit:10;" d="M 203.035156 20.503906 C 203.035156 22.90625 199.433594 22.90625 199.433594 20.503906 C 199.433594 18.105469 203.035156 18.105469 203.035156 20.503906 "/>
<path style="fill-rule:nonzero;fill:rgb(100%,0%,0%);fill-opacity:1;stroke-width:0.75;stroke-linecap:round;stroke-linejoin:round;stroke:rgb(100%,0%,0%);stroke-opacity:1;stroke-miterlimit:10;" d="M 150.894531 13.851562 C 150.894531 16.25 147.296875 16.25 147.296875 13.851562 C 147.296875 11.453125 150.894531 11.453125 150.894531 13.851562 "/>
<path style="fill-rule:nonzero;fill:rgb(100%,0%,0%);fill-opacity:1;stroke-width:0.75;stroke-linecap:round;stroke-linejoin:round;stroke:rgb(100%,0%,0%);stroke-opacity:1;stroke-miterlimit:10;" d="M 116.15625 52.023438 C 116.15625 54.421875 112.558594 54.421875 112.558594 52.023438 C 112.558594 49.625 116.15625 49.625 116.15625 52.023438 "/>
<path style="fill-rule:nonzero;fill:rgb(100%,0%,0%);fill-opacity:1;stroke-width:0.75;stroke-linecap:round;stroke-linejoin:round;stroke:rgb(100%,0%,0%);stroke-opacity:1;stroke-miterlimit:10;" d="M 102.976562 98.496094 C 102.976562 100.898438 99.378906 100.898438 99.378906 98.496094 C 99.378906 96.097656 102.976562 96.097656 102.976562 98.496094 "/>
<path style="fill-rule:nonzero;fill:rgb(100%,0%,0%);fill-opacity:1;stroke-width:0.75;stroke-linecap:round;stroke-linejoin:round;stroke:rgb(100%,0%,0%);stroke-opacity:1;stroke-miterlimit:10;" d="M 124.796875 143.878906 C 124.796875 146.28125 121.195312 146.28125 121.195312 143.878906 C 121.195312 141.480469 124.796875 141.480469 124.796875 143.878906 "/>
<path style="fill-rule:nonzero;fill:rgb(100%,0%,0%);fill-opacity:1;stroke-width:0.75;stroke-linecap:round;stroke-linejoin:round;stroke:rgb(100%,0%,0%);stroke-opacity:1;stroke-miterlimit:10;" d="M 17.230469 191.765625 C 17.230469 194.167969 13.632812 194.167969 13.632812 191.765625 C 13.632812 189.367188 17.230469 189.367188 17.230469 191.765625 "/>
<path style="fill-rule:nonzero;fill:rgb(100%,0%,0%);fill-opacity:1;stroke-width:0.75;stroke-linecap:round;stroke-linejoin:round;stroke:rgb(100%,0%,0%);stroke-opacity:1;stroke-miterlimit:10;" d="M 110.234375 215.273438 C 110.234375 217.671875 106.632812 217.671875 106.632812 215.273438 C 106.632812 212.875 110.234375 212.875 110.234375 215.273438 "/>
<path style="fill-rule:nonzero;fill:rgb(100%,0%,0%);fill-opacity:1;stroke-width:0.75;stroke-linecap:round;stroke-linejoin:round;stroke:rgb(100%,0%,0%);stroke-opacity:1;stroke-miterlimit:10;" d="M 121.984375 259.34375 C 121.984375 261.746094 118.386719 261.746094 118.386719 259.34375 C 118.386719 256.945312 121.984375 256.945312 121.984375 259.34375 "/>
<path style="fill-rule:nonzero;fill:rgb(100%,0%,0%);fill-opacity:1;stroke-width:0.75;stroke-linecap:round;stroke-linejoin:round;stroke:rgb(100%,0%,0%);stroke-opacity:1;stroke-miterlimit:10;" d="M 142.390625 323.242188 C 142.390625 325.640625 138.789062 325.640625 138.789062 323.242188 C 138.789062 320.839844 142.390625 320.839844 142.390625 323.242188 "/>
<path style="fill-rule:nonzero;fill:rgb(100%,0%,0%);fill-opacity:1;stroke-width:0.75;stroke-linecap:round;stroke-linejoin:round;stroke:rgb(100%,0%,0%);stroke-opacity:1;stroke-miterlimit:10;" d="M 200.988281 321.910156 C 200.988281 324.3125 197.386719 324.3125 197.386719 321.910156 C 197.386719 319.511719 200.988281 319.511719 200.988281 321.910156 "/>
<path style="fill-rule:nonzero;fill:rgb(100%,0%,0%);fill-opacity:1;stroke-width:0.75;stroke-linecap:round;stroke-linejoin:round;stroke:rgb(100%,0%,0%);stroke-opacity:1;stroke-miterlimit:10;" d="M 265.472656 360.148438 C 265.472656 362.546875 261.875 362.546875 261.875 360.148438 C 261.875 357.75 265.472656 357.75 265.472656 360.148438 "/>
<path style="fill-rule:nonzero;fill:rgb(100%,0%,0%);fill-opacity:1;stroke-width:0.75;stroke-linecap:round;stroke-linejoin:round;stroke:rgb(100%,0%,0%);stroke-opacity:1;stroke-miterlimit:10;" d="M 318.507812 318.046875 C 318.507812 320.445312 314.90625 320.445312 314.90625 318.046875 C 314.90625 315.648438 318.507812 315.648438 318.507812 318.046875 "/>
<path style="fill-rule:nonzero;fill:rgb(100%,0%,0%);fill-opacity:1;stroke-width:0.75;stroke-linecap:round;stroke-linejoin:round;stroke:rgb(100%,0%,0%);stroke-opacity:1;stroke-miterlimit:10;" d="M 292.171875 219.304688 C 292.171875 221.703125 288.570312 221.703125 288.570312 219.304688 C 288.570312 216.90625 292.171875 216.90625 292.171875 219.304688 "/>
<path style="fill-rule:nonzero;fill:rgb(100%,0%,0%);fill-opacity:1;stroke-width:0.75;stroke-linecap:round;stroke-linejoin:round;stroke:rgb(100%,0%,0%);stroke-opacity:1;stroke-miterlimit:10;" d="M 359.140625 208.503906 C 359.140625 210.90625 355.542969 210.90625 355.542969 208.503906 C 355.542969 206.105469 359.140625 206.105469 359.140625 208.503906 "/>
<path style="fill-rule:nonzero;fill:rgb(100%,0%,0%);fill-opacity:1;stroke-width:0.75;stroke-linecap:round;stroke-linejoin:round;stroke:rgb(100%,0%,0%);stroke-opacity:1;stroke-miterlimit:10;" d="M 340.277344 158.847656 C 340.277344 161.25 336.679688 161.25 336.679688 158.847656 C 336.679688 156.449219 340.277344 156.449219 340.277344 158.847656 "/>
<path style="fill-rule:nonzero;fill:rgb(100%,18.823529%,18.823529%);fill-opacity:1;stroke-width:0.75;stroke-linecap:round;stroke-linejoin:round;stroke:rgb(100%,18.823529%,18.823529%);stroke-opacity:1;stroke-miterlimit:10;" d="M 360.367188 158.847656 C 360.367188 161.25 356.769531 161.25 356.769531 158.847656 C 356.769531 156.449219 360.367188 156.449219 360.367188 158.847656 "/>
<path style="fill-rule:nonzero;fill:rgb(100%,18.823529%,18.823529%);fill-opacity:1;stroke-width:0.75;stroke-linecap:round;stroke-linejoin:round;stroke:rgb(100%,18.823529%,18.823529%);stroke-opacity:1;stroke-miterlimit:10;" d="M 309.730469 126.15625 C 309.730469 128.554688 306.132812 128.554688 306.132812 126.15625 C 306.132812 123.753906 309.730469 123.753906 309.730469 126.15625 "/>
<path style="fill-rule:nonzero;fill:rgb(100%,18.823529%,18.823529%);fill-opacity:1;stroke-width:0.75;stroke-linecap:round;stroke-linejoin:round;stroke:rgb(100%,18.823529%,18.823529%);stroke-opacity:1;stroke-miterlimit:10;" d="M 319.207031 77.351562 C 319.207031 79.75 315.609375 79.75 315.609375 77.351562 C 315.609375 74.949219 319.207031 74.949219 319.207031 77.351562 "/>
<path style="fill-rule:nonzero;fill:rgb(100%,18.823529%,18.823529%);fill-opacity:1;stroke-width:0.75;stroke-linecap:round;stroke-linejoin:round;stroke:rgb(100%,18.823529%,18.823529%);stroke-opacity:1;stroke-miterlimit:10;" d="M 302.363281 24.359375 C 302.363281 26.761719 298.765625 26.761719 298.765625 24.359375 C 298.765625 21.960938 302.363281 21.960938 302.363281 24.359375 "/>
<path style="fill-rule:nonzero;fill:rgb(100%,18.823529%,18.823529%);fill-opacity:1;stroke-width:0.75;stroke-linecap:round;stroke-linejoin:round;stroke:rgb(100%,18.823529%,18.823529%);stroke-opacity:1;stroke-miterlimit:10;" d="M 244.054688 42.136719 C 244.054688 44.535156 240.453125 44.535156 240.453125 42.136719 C 240.453125 39.734375 244.054688 39.734375 244.054688 42.136719 "/>
<path style="fill-rule:nonzero;fill:rgb(100%,18.823529%,18.823529%);fill-opacity:1;stroke-width:0.75;stroke-linecap:round;stroke-linejoin:round;stroke:rgb(100%,18.823529%,18.823529%);stroke-opacity:1;stroke-miterlimit:10;" d="M 203.035156 20.503906 C 203.035156 22.90625 199.433594 22.90625 199.433594 20.503906 C 199.433594 18.105469 203.035156 18.105469 203.035156 20.503906 "/>
<path style="fill-rule:nonzero;fill:rgb(100%,18.823529%,18.823529%);fill-opacity:1;stroke-width:0.75;stroke-linecap:round;stroke-linejoin:round;stroke:rgb(100%,18.823529%,18.823529%);stroke-opacity:1;stroke-miterlimit:10;" d="M 150.894531 13.851562 C 150.894531 16.25 147.296875 16.25 147.296875 13.851562 C 147.296875 11.453125 150.894531 11.453125 150.894531 13.851562 "/>
<path style="fill-rule:nonzero;fill:rgb(100%,18.823529%,18.823529%);fill-opacity:1;stroke-width:0.75;stroke-linecap:round;stroke-linejoin:round;stroke:rgb(100%,18.823529%,18.823529%);stroke-opacity:1;stroke-miterlimit:10;" d="M 116.15625 52.023438 C 116.15625 54.421875 112.558594 54.421875 112.558594 52.023438 C 112.558594 49.625 116.15625 49.625 116.15625 52.023438 "/>
<path style="fill-rule:nonzero;fill:rgb(100%,18.823529%,18.823529%);fill-opacity:1;stroke-width:0.75;stroke-linecap:round;stroke-linejoin:round;stroke:rgb(100%,18.823529%,18.823529%);stroke-opacity:1;stroke-miterlimit:10;" d="M 102.976562 98.496094 C 102.976562 100.898438 99.378906 100.898438 99.378906 98.496094 C 99.378906 96.097656 102.976562 96.097656 102.976562 98.496094 "/>
<path style="fill-rule:nonzero;fill:rgb(100%,18.823529%,18.823529%);fill-opacity:1;stroke-width:0.75;stroke-linecap:round;stroke-linejoin:round;stroke:rgb(100%,18.823529%,18.823529%);stroke-opacity:1;stroke-miterlimit:10;" d="M 124.796875 143.878906 C 124.796875 146.28125 121.195312 146.28125 121.195312 143.878906 C 121.195312 141.480469 124.796875 141.480469 124.796875 143.878906 "/>
<path style="fill-rule:nonzero;fill:rgb(100%,18.823529%,18.823529%);fill-opacity:1;stroke-width:0.75;stroke-linecap:round;stroke-linejoin:round;stroke:rgb(100%,18.823529%,18.823529%);stroke-opacity:1;stroke-miterlimit:10;" d="M 17.230469 191.765625 C 17.230469 194.167969 13.632812 194.167969 13.632812 191.765625 C 13.632812 189.367188 17.230469 189.367188 17.230469 191.765625 "/>
<path style="fill-rule:nonzero;fill:rgb(100%,18.823529%,18.823529%);fill-opacity:1;stroke-width:0.75;stroke-linecap:round;stroke-linejoin:round;stroke:rgb(100%,18.823529%,18.823529%);stroke-opacity:1;stroke-miterlimit:10;" d="M 110.234375 215.273438 C 110.234375 217.671875 106.632812 217.671875 106.632812 215.273438 C 106.632812 212.875 110.234375 212.875 110.234375 215.273438 "/>
<path style="fill-rule:nonzero;fill:rgb(100%,18.823529%,18.823529%);fill-opacity:1;stroke-width:0.75;stroke-linecap:round;stroke-linejoin:round;stroke:rgb(100%,18.823529%,18.823529%);stroke-opacity:1;stroke-miterlimit:10;" d="M 121.984375 259.34375 C 121.984375 261.746094 118.386719 261.746094 118.386719 259.34375 C 118.386719 256.945312 121.984375 256.945312 121.984375 259.34375 "/>
<path style="fill-rule:nonzero;fill:rgb(100%,18.823529%,18.823529%);fill-opacity:1;stroke-width:0.75;stroke-linecap:round;stroke-linejoin:round;stroke:rgb(100%,18.823529%,18.823529%);stroke-opacity:1;stroke-miterlimit:10;" d="M 142.390625 323.242188 C 142.390625 325.640625 138.789062 325.640625 138.789062 323.242188 C 138.789062 320.839844 142.390625 320.839844 142.390625 323.242188 "/>
<path style="fill-rule:nonzero;fill:rgb(100%,18.823529%,18.823529%);fill-opacity:1;stroke-width:0.75;stroke-linecap:round;stroke-linejoin:round;stroke:rgb(100%,18.823529%,18.823529%);stroke-opacity:1;stroke-miterlimit:10;" d="M 200.988281 321.910156 C 200.988281 324.3125 197.386719 324.3125 197.386719 321.910156 C 197.386719 319.511719 200.988281 319.511719 200.988281 321.910156 "/>
<path style="fill-rule:nonzero;fill:rgb(100%,18.823529%,18.823529%);fill-opacity:1;stroke-width:0.75;stroke-linecap:round;stroke-linejoin:round;stroke:rgb(100%,18.823529%,18.823529%);stroke-opacity:1;stroke-miterlimit:10;" d="M 265.472656 360.148438 C 265.472656 362.546875 261.875 362.546875 261.875 360.148438 C 261.875 357.75 265.472656 357.75 265.472656 360.148438 "/>
<path style="fill-rule:nonzero;fill:rgb(100%,18.823529%,18.823529%);fill-opacity:1;stroke-width:0.75;stroke-linecap:round;stroke-linejoin:round;stroke:rgb(100%,18.823529%,18.823529%);stroke-opacity:1;stroke-miterlimit:10;" d="M 318.507812 318.046875 C 318.507812 320.445312 314.90625 320.445312 314.90625 318.046875 C 314.90625 315.648438 318.507812 315.648438 318.507812 318.046875 "/>
<path style="fill-rule:nonzero;fill:rgb(100%,18.823529%,18.823529%);fill-opacity:1;stroke-width:0.75;stroke-linecap:round;stroke-linejoin:round;stroke:rgb(100%,18.823529%,18.823529%);stroke-opacity:1;stroke-miterlimit:10;" d="M 292.171875 219.304688 C 292.171875 221.703125 288.570312 221.703125 288.570312 219.304688 C 288.570312 216.90625 292.171875 216.90625 292.171875 219.304688 "/>
<path style="fill-rule:nonzero;fill:rgb(100%,18.823529%,18.823529%);fill-opacity:1;stroke-width:0.75;stroke-linecap:round;stroke-linejoin:round;stroke:rgb(100%,18.823529%,18.823529%);stroke-opacity:1;stroke-miterlimit:10;" d="M 359.140625 208.503906 C 359.140625 210.90625 355.542969 210.90625 355.542969 208.503906 C 355.542969 206.105469 359.140625 206.105469 359.140625 208.503906 "/>
<path style="fill-rule:nonzero;fill:rgb(100%,18.823529%,18.823529%);fill-opacity:1;stroke-width:0.75;stroke-linecap:round;stroke-linejoin:round;stroke:rgb(100%,18.823529%,18.823529%);stroke-opacity:1;stroke-miterlimit:10;" d="M 340.277344 158.847656 C 340.277344 161.25 336.679688 161.25 336.679688 158.847656 C 336.679688 156.449219 340.277344 156.449219 340.277344 158.847656 "/>
</g>
</svg>

<svg xmlns="http://www.w3.org/2000/svg" width="374pt" height="374pt" viewBox="0 0 374 374"><path fill="#fff" d="M0 0h374v374H0z"/><path d="M360.367 158.848c0 2.402-3.597 2.402-3.597 0 0-2.399 3.597-2.399 3.597 0M309.73 126.156c0 2.399-3.597 2.399-3.597 0 0-2.402 3.597-2.402 3.597 0M319.207 77.352c0 2.398-3.598 2.398-3.598 0 0-2.403 3.598-2.403 3.598 0M302.363 24.36c0 2.402-3.597 2.402-3.597 0 0-2.4 3.597-2.4 3.597 0M244.055 42.137c0 2.398-3.602 2.398-3.602 0 0-2.403 3.602-2.403 3.602 0M203.035 20.504c0 2.402-3.601 2.402-3.601 0 0-2.399 3.601-2.399 3.601 0M150.895 13.852c0 2.398-3.598 2.398-3.598 0 0-2.399 3.598-2.399 3.598 0M116.156 52.023c0 2.399-3.597 2.399-3.597 0 0-2.398 3.597-2.398 3.597 0M102.977 98.496c0 2.402-3.598 2.402-3.598 0 0-2.398 3.598-2.398 3.598 0M124.797 143.879c0 2.402-3.602 2.402-3.602 0 0-2.399 3.602-2.399 3.602 0M17.23 191.766c0 2.402-3.597 2.402-3.597 0 0-2.399 3.597-2.399 3.597 0M110.234 215.273c0 2.399-3.601 2.399-3.601 0 0-2.398 3.601-2.398 3.601 0M121.984 259.344c0 2.402-3.597 2.402-3.597 0 0-2.399 3.597-2.399 3.597 0M142.39 323.242c0 2.399-3.6 2.399-3.6 0 0-2.402 3.6-2.402 3.6 0M200.988 321.91c0 2.402-3.601 2.402-3.601 0 0-2.398 3.601-2.398 3.601 0M265.473 360.148c0 2.399-3.598 2.399-3.598 0 0-2.398 3.598-2.398 3.598 0M318.508 318.047c0 2.398-3.602 2.398-3.602 0 0-2.399 3.602-2.399 3.602 0M292.172 219.305c0 2.398-3.602 2.398-3.602 0 0-2.399 3.602-2.399 3.602 0M359.14 208.504c0 2.402-3.597 2.402-3.597 0 0-2.399 3.598-2.399 3.598 0M340.277 158.848c0 2.402-3.597 2.402-3.597 0 0-2.399 3.597-2.399 3.597 0" fill="red" stroke-width=".75" stroke-linecap="round" stroke-linejoin="round" stroke="red" stroke-miterlimit="10"/><path d="M360.367 158.848c0 2.402-3.597 2.402-3.597 0 0-2.399 3.597-2.399 3.597 0M309.73 126.156c0 2.399-3.597 2.399-3.597 0 0-2.402 3.597-2.402 3.597 0M319.207 77.352c0 2.398-3.598 2.398-3.598 0 0-2.403 3.598-2.403 3.598 0M302.363 24.36c0 2.402-3.597 2.402-3.597 0 0-2.4 3.597-2.4 3.597 0M244.055 42.137c0 2.398-3.602 2.398-3.602 0 0-2.403 3.602-2.403 3.602 0M203.035 20.504c0 2.402-3.601 2.402-3.601 0 0-2.399 3.601-2.399 3.601 0M150.895 13.852c0 2.398-3.598 2.398-3.598 0 0-2.399 3.598-2.399 3.598 0M116.156 52.023c0 2.399-3.597 2.399-3.597 0 0-2.398 3.597-2.398 3.597 0M102.977 98.496c0 2.402-3.598 2.402-3.598 0 0-2.398 3.598-2.398 3.598 0M124.797 143.879c0 2.402-3.602 2.402-3.602 0 0-2.399 3.602-2.399 3.602 0M17.23 191.766c0 2.402-3.597 2.402-3.597 0 0-2.399 3.597-2.399 3.597 0M110.234 215.273c0 2.399-3.601 2.399-3.601 0 0-2.398 3.601-2.398 3.601 0M121.984 259.344c0 2.402-3.597 2.402-3.597 0 0-2.399 3.597-2.399 3.597 0M142.39 323.242c0 2.399-3.6 2.399-3.6 0 0-2.402 3.6-2.402 3.6 0M200.988 321.91c0 2.402-3.601 2.402-3.601 0 0-2.398 3.601-2.398 3.601 0M265.473 360.148c0 2.399-3.598 2.399-3.598 0 0-2.398 3.598-2.398 3.598 0M318.508 318.047c0 2.398-3.602 2.398-3.602 0 0-2.399 3.602-2.399 3.602 0M292.172 219.305c0 2.398-3.602 2.398-3.602 0 0-2.399 3.602-2.399 3.602 0M359.14 208.504c0 2.402-3.597 2.402-3.597 0 0-2.399 3.598-2.399 3.598 0M340.277 158.848c0 2.402-3.597 2.402-3.597 0 0-2.399 3.597-2.399 3.597 0" fill="#ff3030" stroke-width=".75" stroke-linecap="round" stroke-linejoin="round" stroke="#ff3030" stroke-miterlimit="10"/></svg>
